dist/img/logo.svg

<svg width="354" height="391" viewBox="0 0 354 391" fill="none" xmlns="http://www.w3.org/2000/svg">
<path d="M16.6856 146.237H23.2683C29.1775 146.237 34.1308 143.261 38.1064 137.33C42.0821 131.399 44.0808 123.252 44.0808 112.868V108.066C44.0808 96.1828 42.169 87.6449 38.3237 82.4091C34.4784 77.1734 29.4599 74.5664 23.2466 74.5664H0.457031V187.645H16.6856V146.237ZM16.6856 92.7937H20.6396C25.897 92.7937 28.5257 97.8773 28.5257 108.066V112.585C28.5257 122.861 25.897 127.988 20.6396 127.988H16.6856V92.7937Z" fill="#E42313"/>
<path d="M66.1325 162.618C66.1325 165.529 65.6111 167.767 64.59 169.331C63.569 170.895 62.3958 171.655 61.0923 171.655C59.6367 171.655 58.3332 170.852 57.2035 169.244C56.0738 167.636 55.509 165.094 55.509 161.618V152.298H43.2344V161.618C43.2344 169.917 44.7768 176.587 47.8835 181.627C50.9902 186.667 56.0087 189.187 62.9607 189.187C74.0621 189.187 80.9707 179.759 83.6646 160.923L94.136 87.2755C96.4172 73.9798 100.371 56.0783 106.541 42.913C117.599 19.2979 132.285 15.0398 143.365 19.4934C157.117 25.0333 152.294 47.8011 136.13 40.9795C136.13 40.9795 137.782 51.6682 149.969 53.971C162.722 56.3608 176.691 44.2599 171.673 24.6205C175.04 25.055 178.907 25.0985 182.948 24.1643C182.948 24.1643 177.842 -0.102519 141.453 0.114731C134.11 0.158181 127.788 1.67894 122.379 4.09041C114.536 7.32744 107.258 13.1063 101.87 21.818C101.74 22.0353 101.609 22.2742 101.457 22.4915C96.3954 30.117 93.8753 37.4818 92.9412 40.6319C88.6613 52.1896 85.9892 63.9863 84.425 72.5459H84.3598L83.9687 75.2181C83.2735 79.3241 82.8608 82.409 82.6652 83.9732L74.0187 141.849L61.353 74.5446H44.0382L65.8501 157.23C66.0673 158.077 66.176 159.859 66.176 162.596L66.1325 162.618Z" fill="#E42313"/>
<path d="M140.756 121.342V103.81C140.756 93.6429 139.039 85.9523 135.607 80.76C132.174 75.5677 126.656 72.9824 119.052 72.9824C111.535 72.9824 105.93 75.7197 102.237 81.1727C98.5439 86.6474 96.6973 94.186 96.6973 103.788V158.362C96.6973 167.964 98.5439 175.524 102.237 180.977C105.93 186.452 111.535 189.168 119.052 189.168C133.956 189.168 141.407 178.892 141.407 158.34V140.808H127.156V158.34C127.156 163.706 126.634 167.551 125.57 169.854C124.505 172.157 122.659 173.308 120.03 173.308C115.272 173.308 112.904 168.312 112.904 158.318V103.745C112.904 93.7515 115.272 88.7548 120.03 88.7548C122.659 88.7548 124.505 89.9062 125.57 92.209C126.634 94.5119 127.156 98.3572 127.156 103.723V121.255H140.734L140.756 121.342Z" fill="#E42313"/>
<path d="M166.979 73.0029C159.462 73.0029 153.857 75.7403 150.163 81.1932C146.47 86.6679 144.624 94.2065 144.624 103.809V158.382C144.624 167.985 146.47 175.545 150.163 180.998C153.857 186.473 159.462 189.188 166.979 189.188C181.882 189.188 189.334 178.912 189.334 158.36V140.828H175.082V158.36C175.082 163.727 174.561 167.572 173.496 169.875C172.432 172.178 170.585 173.329 167.956 173.329C163.198 173.329 160.83 168.332 160.83 158.339V103.766C160.83 93.772 163.198 88.7752 167.956 88.7752C170.585 88.7752 172.432 89.9267 173.496 92.2295C174.561 94.5324 175.082 98.3777 175.082 103.744V121.276H188.66V103.744C188.66 93.5765 186.944 85.8858 183.511 80.6936C180.079 75.5013 174.561 72.916 166.957 72.916L166.979 73.0029Z" fill="#E42313"/>
<path d="M209.106 139.004H213.277C215.753 139.004 217.796 140.112 219.403 142.328C221.011 144.544 221.815 148.063 221.815 152.864V167.855C221.815 182.085 227.007 189.189 237.37 189.189C240.433 189.189 243.54 188.537 246.69 187.212V168.984C245.299 169.745 243.952 170.114 242.627 170.114C239.564 170.114 238.021 166.638 238.021 159.664V150.344C238.021 143.936 236.696 138.961 234.068 135.441C231.439 131.9 228.18 129.945 224.313 129.575C232.134 127.881 236.045 121.711 236.045 111.066C236.045 110.023 235.979 108.35 235.827 106.047C235.675 103.744 235.61 102.31 235.61 101.746C235.61 95.4236 237.5 92.2735 241.302 92.2735C242.106 92.2735 243.236 92.469 244.691 92.8383V74.6111C240.39 73.5683 237.066 73.0469 234.719 73.0469C230.266 73.0469 226.811 74.7631 224.356 78.2174C221.902 81.65 220.685 86.7336 220.685 93.4032C220.685 94.9022 220.837 97.3137 221.119 100.616C221.402 103.918 221.554 106.221 221.554 107.546C221.554 116.41 218.773 120.842 213.233 120.842H209.062V74.6111H192.833V187.69H209.062V139.069L209.106 139.004Z" fill="#E42313"/>
<path d="M264.285 141.697V74.5449H249.382V187.645H266.045L281.817 119.364V187.645H296.721V74.5449H280.058L264.285 141.697Z" fill="#E42313"/>
<path d="M324.788 69.5916C338.149 69.5916 344.841 65.529 344.841 57.4256C344.841 54.6882 344.776 52.7547 344.623 51.625H330.155C330.372 52.5592 330.48 54.3624 330.48 56.9911C330.48 60.0109 328.59 61.5099 324.788 61.5099C320.987 61.5099 319.097 60.0109 319.097 56.9911C319.097 54.3624 319.205 52.5592 319.422 51.625H304.954C304.801 52.7547 304.736 54.6882 304.736 57.4256C304.736 65.529 311.428 69.5916 324.788 69.5916Z" fill="#E42313"/>
<path d="M336.085 119.364V187.624H350.988V74.5449H334.325L316.033 141.697V74.5449H301.129V187.624H317.792L336.085 119.364Z" fill="#E42313"/>
<path d="M32.5006 248.194C35.7811 247.064 38.6053 244.283 40.9516 239.852C43.2979 235.42 44.4711 229.293 44.4711 221.472V219.778C44.4711 201.789 37.2584 192.773 22.8547 192.773C8.38586 192.773 1.12971 203.288 1.12971 224.296V231.357H15.1206V224.144C15.1206 219.908 15.5768 216.519 16.4676 213.977C17.3583 211.435 19.1832 210.153 21.964 210.153C26.2873 210.153 28.4598 214.498 28.4598 223.167V224.296C28.4598 235.702 25.9179 241.394 20.856 241.394H13.0133V256.797H21.964C26.7435 256.797 29.1332 261.229 29.1332 270.093V277.588C29.1332 281.65 28.5467 284.931 27.3952 287.473C26.2438 290.015 24.4189 291.296 21.964 291.296C17.3366 291.296 15.0337 286.625 15.012 277.305V268.833H0V277.175C0 298.183 7.32132 308.698 21.9423 308.698C37.845 308.698 45.7963 297.77 45.7746 275.893V274.329C45.7746 266.421 44.4711 260.251 41.8641 255.819C39.2571 251.387 36.107 248.846 32.4572 248.194H32.5006Z" fill="#E42313"/>
<path d="M61.2003 194.055L46.6445 307.133H60.5268L63.6552 280.129H79.2103L82.5777 307.133H99.1538L84.7067 194.055H61.2003ZM65.7842 261.902L71.6065 207.894L77.2116 261.902H65.7842Z" fill="#E42313"/>
<path d="M142.32 298.443C145.492 293.208 147.078 286.886 147.078 279.434V275.48C147.078 267.572 145.514 261.25 142.385 256.536C139.257 251.821 135.781 249.193 131.979 248.628C135.477 247.498 138.605 244.804 141.321 240.568C144.036 236.332 145.405 230.531 145.405 223.188V221.059C145.405 213.325 143.884 207.046 140.821 202.18C137.758 197.335 133.608 194.706 128.394 194.337C125.701 194.142 123.658 194.055 122.246 194.055H101.868V307.133H119.226C124.006 307.133 127.591 307.046 129.98 306.851C135.064 306.482 139.17 303.679 142.342 298.443H142.32ZM118.423 212.282H121.225C124.201 212.282 126.439 213.303 127.938 215.323C129.437 217.344 130.176 220.668 130.176 225.295V227.837C130.176 231.617 129.437 234.615 128.003 236.875C126.548 239.134 124.918 240.264 123.137 240.264H118.444V212.282H118.423ZM122.898 288.906H118.423V258.513H123.115C125.57 258.513 127.656 259.556 129.329 261.619C131.001 263.683 131.849 266.66 131.849 270.527V275.893C131.849 280.52 131.132 283.822 129.676 285.865C128.221 287.885 125.961 288.906 122.898 288.906Z" fill="#E42313"/>
<path d="M181.645 307.134L181.624 212.282H198.091V194.033H148.602V212.282H165.069V307.134H181.645Z" fill="#E42313"/>
<path d="M257.484 194.033L242.929 307.112H256.811L259.939 280.108H275.494L278.862 307.112H295.438L280.991 194.033H257.484ZM262.068 261.88L267.891 207.872L273.496 261.88H262.068Z" fill="#E42313"/>
<path d="M348.971 289.579C345.843 289.579 344.279 286.103 344.279 279.129V269.809C344.279 263.4 342.932 258.425 340.238 254.906C337.544 251.365 334.22 249.41 330.266 249.04C338.261 247.346 342.237 241.176 342.237 230.53C342.237 229.488 342.15 227.815 342.019 225.512C341.867 223.209 341.802 221.775 341.802 221.21C341.802 214.888 343.736 211.738 347.624 211.738C348.45 211.738 349.601 211.934 351.1 212.303V194.076C346.69 193.033 343.301 192.512 340.911 192.512C336.349 192.512 332.83 194.228 330.331 197.682C327.833 201.115 326.573 206.198 326.573 212.868C326.573 214.367 326.725 216.779 327.029 220.081C327.333 223.383 327.485 225.686 327.485 227.011C327.485 235.875 324.639 240.307 318.969 240.307H314.711V194.076H298.135V307.155H314.711V258.534H318.969C321.511 258.534 323.596 259.642 325.248 261.858C326.899 264.074 327.702 267.572 327.702 272.395V287.385C327.702 301.615 333.003 308.719 343.605 308.719C346.734 308.719 349.905 308.067 353.121 306.742V288.515C351.709 289.275 350.318 289.644 348.971 289.644V289.579Z" fill="#E42313"/>
<path d="M245.601 227.531C245.601 215.648 243.646 207.11 239.714 201.874C235.803 196.638 230.654 194.031 224.311 194.031H201.021V272.85C201.021 272.85 201.021 273.306 201.021 274.131V279.497C200.934 291.012 200.152 315.3 195.677 334.918C189.572 361.596 171.888 371.981 158.006 369.678C144.124 367.397 143.363 349.865 153.422 346.954C162.22 344.412 165.153 352.602 165.153 352.602C165.153 352.602 174.169 338.698 163.785 329.421C154.617 321.253 140.604 323.925 133.587 334.918C126.57 345.889 133.283 357.034 133.283 357.034C126.309 352.754 120.009 354.601 120.009 354.601C120.617 375.196 135.412 391.49 161.938 389.969C188.464 388.448 205.67 361.77 211.84 338.068C217.337 316.995 217.554 265.702 217.554 265.702H224.267C230.307 265.702 235.369 262.726 239.431 256.795C243.494 250.864 245.536 242.717 245.536 232.332V227.531H245.601ZM229.698 232.05C229.698 242.326 227.004 247.453 221.638 247.453H217.598V212.259H221.638C227.004 212.259 229.698 217.342 229.698 227.531V232.05Z" fill="#E42313"/>
</svg>

<svg width="354" height="391" viewBox="0 0 354 391" fill="none" xmlns="http://www.w3.org/2000/svg"><path d="M16.686 146.237h6.582c5.91 0 10.863-2.976 14.838-8.907 3.976-5.931 5.975-14.078 5.975-24.462v-4.802c0-11.883-1.912-20.421-5.757-25.657-3.846-5.236-8.864-7.843-15.077-7.843H.457v113.079h16.229v-41.408zm0-53.443h3.954c5.257 0 7.886 5.083 7.886 15.272v4.519c0 10.276-2.629 15.403-7.886 15.403h-3.954V92.794z" fill="#E42313"/><path d="M66.132 162.618c0 2.911-.52 5.149-1.542 6.713-1.021 1.564-2.194 2.324-3.498 2.324-1.455 0-2.759-.803-3.889-2.411s-1.694-4.15-1.694-7.626v-9.32H43.234v9.32c0 8.299 1.543 14.969 4.65 20.009 3.106 5.04 8.125 7.56 15.077 7.56 11.101 0 18.01-9.428 20.704-28.264l10.471-73.648c2.281-13.295 6.235-31.197 12.405-44.362 11.058-23.615 25.744-27.873 36.824-23.42 13.752 5.54 8.929 28.308-7.235 21.487 0 0 1.652 10.688 13.839 12.991 12.753 2.39 26.722-9.711 21.704-29.35 3.367.434 7.234.478 11.275-.457 0 0-5.106-24.267-41.495-24.05-7.343.044-13.665 1.565-19.074 3.976-7.843 3.237-15.121 9.016-20.509 17.728-.13.217-.261.456-.413.673-5.062 7.626-7.582 14.99-8.516 18.14-4.28 11.559-6.952 23.355-8.516 31.915h-.065l-.391 2.672a207.473 207.473 0 00-1.304 8.755L74.02 141.85 61.353 74.545H44.038L65.85 157.23c.217.847.326 2.629.326 5.366l-.044.022z" fill="#E42313"/><path d="M140.756 121.342V103.81c0-10.167-1.717-17.858-5.149-23.05-3.433-5.192-8.951-7.778-16.555-7.778-7.517 0-13.122 2.738-16.815 8.19-3.693 5.475-5.54 13.014-5.54 22.616v54.574c0 9.602 1.847 17.162 5.54 22.615 3.693 5.475 9.298 8.191 16.815 8.191 14.904 0 22.355-10.276 22.355-30.828v-17.532h-14.251v17.532c0 5.366-.522 9.211-1.586 11.514-1.065 2.303-2.911 3.454-5.54 3.454-4.758 0-7.126-4.996-7.126-14.99v-54.573c0-9.994 2.368-14.99 7.126-14.99 2.629 0 4.475 1.151 5.54 3.454 1.064 2.303 1.586 6.148 1.586 11.514v17.532h13.578l.022.087zm26.223-48.339c-7.517 0-13.122 2.737-16.816 8.19-3.693 5.475-5.539 13.014-5.539 22.616v54.573c0 9.603 1.846 17.163 5.539 22.616 3.694 5.475 9.299 8.19 16.816 8.19 14.903 0 22.355-10.276 22.355-30.828v-17.532h-14.252v17.532c0 5.367-.521 9.212-1.586 11.515-1.064 2.303-2.911 3.454-5.54 3.454-4.758 0-7.126-4.997-7.126-14.99v-54.573c0-9.994 2.368-14.99 7.126-14.99 2.629 0 4.476 1.15 5.54 3.454 1.065 2.302 1.586 6.148 1.586 11.514v17.532h13.578v-17.532c0-10.168-1.716-17.858-5.149-23.05-3.432-5.193-8.95-7.778-16.554-7.778l.022.087zm42.127 66.001h4.171c2.476 0 4.519 1.108 6.126 3.324 1.608 2.216 2.412 5.735 2.412 10.536v14.991c0 14.23 5.192 21.334 15.555 21.334 3.063 0 6.17-.652 9.32-1.977v-18.228c-1.391.761-2.738 1.13-4.063 1.13-3.063 0-4.606-3.476-4.606-10.45v-9.32c0-6.408-1.325-11.383-3.953-14.903-2.629-3.541-5.888-5.496-9.755-5.866 7.821-1.694 11.732-7.864 11.732-18.509 0-1.043-.066-2.716-.218-5.019s-.217-3.737-.217-4.301c0-6.322 1.89-9.472 5.692-9.472.804 0 1.934.195 3.389.564V74.611c-4.301-1.043-7.625-1.564-9.972-1.564-4.453 0-7.908 1.716-10.363 5.17-2.454 3.433-3.671 8.517-3.671 15.186 0 1.5.152 3.91.434 7.213.283 3.302.435 5.605.435 6.93 0 8.864-2.781 13.296-8.321 13.296h-4.171v-46.23h-16.229V187.69h16.229v-48.621l.044-.065zm55.179 2.693V74.545h-14.903v113.1h16.663l15.772-68.281v68.281h14.904v-113.1h-16.663l-15.773 67.152zm60.503-72.105c13.361 0 20.053-4.063 20.053-12.166 0-2.738-.065-4.671-.218-5.801h-14.468c.217.934.325 2.737.325 5.366 0 3.02-1.89 4.519-5.692 4.519-3.801 0-5.691-1.5-5.691-4.519 0-2.629.108-4.432.325-5.366h-14.468c-.153 1.13-.218 3.063-.218 5.8 0 8.104 6.692 12.167 20.052 12.167zm11.297 49.772v68.26h14.903V74.544h-16.663l-18.292 67.153V74.545h-14.904v113.079h16.663l18.293-68.26zM32.5 248.194c3.281-1.13 6.105-3.911 8.452-8.342 2.346-4.432 3.52-10.559 3.52-18.38v-1.694c0-17.989-7.214-27.005-21.617-27.005-14.47 0-21.725 10.515-21.725 31.523v7.061h13.99v-7.213c0-4.236.457-7.625 1.348-10.167.89-2.542 2.715-3.824 5.496-3.824 4.323 0 6.496 4.345 6.496 13.014v1.129c0 11.406-2.542 17.098-7.604 17.098h-7.843v15.403h8.951c4.78 0 7.17 4.432 7.17 13.296v7.495c0 4.062-.587 7.343-1.739 9.885-1.151 2.542-2.976 3.823-5.431 3.823-4.627 0-6.93-4.671-6.952-13.991v-8.472H0v8.342c0 21.008 7.321 31.523 21.942 31.523 15.903 0 23.854-10.928 23.833-32.805v-1.564c0-7.908-1.304-14.078-3.91-18.51-2.608-4.432-5.758-6.973-9.408-7.625h.044zm28.7-54.139L46.644 307.133h13.883l3.128-27.004H79.21l3.368 27.004h16.576L84.707 194.055H61.2zm4.584 67.847l5.822-54.008 5.606 54.008H65.784zm76.536 36.541c3.172-5.235 4.758-11.557 4.758-19.009v-3.954c0-7.908-1.564-14.23-4.693-18.944-3.128-4.715-6.604-7.343-10.406-7.908 3.498-1.13 6.626-3.824 9.342-8.06 2.715-4.236 4.084-10.037 4.084-17.38v-2.129c0-7.734-1.521-14.013-4.584-18.879-3.063-4.845-7.213-7.474-12.427-7.843-2.693-.195-4.736-.282-6.148-.282h-20.378v113.078h17.358c4.78 0 8.365-.087 10.754-.282 5.084-.369 9.19-3.172 12.362-8.408h-.022zm-23.897-86.161h2.802c2.976 0 5.214 1.021 6.713 3.041 1.499 2.021 2.238 5.345 2.238 9.972v2.542c0 3.78-.739 6.778-2.173 9.038-1.455 2.259-3.085 3.389-4.866 3.389h-4.693v-27.982h-.021zm4.475 76.624h-4.475v-30.393h4.692c2.455 0 4.541 1.043 6.214 3.106 1.672 2.064 2.52 5.041 2.52 8.908v5.366c0 4.627-.717 7.929-2.173 9.972-1.455 2.02-3.715 3.041-6.778 3.041zm58.747 18.228l-.021-94.852h16.467v-18.249h-49.489v18.249h16.467v94.852h16.576zm75.839-113.101l-14.555 113.079h13.882l3.128-27.004h15.555l3.368 27.004h16.576l-14.447-113.079h-23.507zm4.584 67.847l5.823-54.008 5.605 54.008h-11.428zm86.903 27.699c-3.128 0-4.692-3.476-4.692-10.45v-9.32c0-6.409-1.347-11.384-4.041-14.903-2.694-3.541-6.018-5.496-9.972-5.866 7.995-1.694 11.971-7.864 11.971-18.51 0-1.042-.087-2.715-.218-5.018-.152-2.303-.217-3.737-.217-4.302 0-6.322 1.934-9.472 5.822-9.472.826 0 1.977.196 3.476.565v-18.227c-4.41-1.043-7.799-1.564-10.189-1.564-4.562 0-8.081 1.716-10.58 5.17-2.498 3.433-3.758 8.516-3.758 15.186 0 1.499.152 3.911.456 7.213.304 3.302.456 5.605.456 6.93 0 8.864-2.846 13.296-8.516 13.296h-4.258v-46.231h-16.576v113.079h16.576v-48.621h4.258c2.542 0 4.627 1.108 6.279 3.324 1.651 2.216 2.454 5.714 2.454 10.537v14.99c0 14.23 5.301 21.334 15.903 21.334 3.129 0 6.3-.652 9.516-1.977v-18.227c-1.412.76-2.803 1.129-4.15 1.129v-.065z" fill="#E42313"/><path d="M245.601 227.531c0-11.883-1.955-20.421-5.887-25.657-3.911-5.236-9.06-7.843-15.403-7.843h-23.29v85.466c-.087 11.515-.869 35.803-5.344 55.421-6.105 26.678-23.789 37.063-37.671 34.76-13.882-2.281-14.643-19.813-4.584-22.724 8.798-2.542 11.731 5.648 11.731 5.648s9.016-13.904-1.368-23.181c-9.168-8.168-23.181-5.496-30.198 5.497-7.017 10.971-.304 22.116-.304 22.116-6.974-4.28-13.274-2.433-13.274-2.433.608 20.595 15.403 36.889 41.929 35.368 26.526-1.521 43.732-28.199 49.902-51.901 5.497-21.073 5.714-72.366 5.714-72.366h6.713c6.04 0 11.102-2.976 15.164-8.907 4.063-5.931 6.105-14.078 6.105-24.463v-4.801h.065zm-15.903 4.519c0 10.276-2.694 15.403-8.06 15.403h-4.04v-35.194h4.04c5.366 0 8.06 5.083 8.06 15.272v4.519z" fill="#E42313"/></svg>
